X: 42850
T: Wild Goose Chase, The
R: reel
M: 4/4
K: Eminor
|:~B2EB FBEB|DBEB FBEB|~B2EB FBEB|DBFB ~E3E:|
|:EBBA ~B2FG|AGFG FEDF|EBBA ~B2FG|AGFG ~E3B|
EBBA ~B2FG|AGFG FEDF|~B2EB FBEB|1 DBFB ~E3B:|2 DBFB ~E3E||

